Gruvbox-Plus-Dark/emotes/symbolic/face-monkey-symbolic.svg

<svg width="16" height="16" version="1.1" xmlns="http://www.w3.org/2000/svg">
  <path d="m7.84 0.06055c-1.23 0.73-1.06 1.629-0.9102 2.029-1.8 0.27-3.539 1.309-4.119 3.189-0.28-0.21-0.5914-0.3496-0.9414-0.3496-1.03 0-1.869 1.091-1.869 2.381s0.8391 2.34 1.869 2.34c0.47 0 0.8907-0.2105 1.221-0.5605 2.72-1.27 7.091-1.471 9.881 0.0293 0.31 0.32 0.7084 0.5312 1.148 0.5312 1.04 0 1.881-1.05 1.881-2.34s-0.8409-2.381-1.881-2.381c-0.43 0-0.8091 0.2-1.119 0.5-0.51-1.7-1.84-2.909-3.82-3.279-0.17-0.64-0.2791-1.911 1.631-1.781-2.17-0.79-2.721 1.631-2.721 1.631-0.27-0.12-0.97-0.6395-0.25-1.939zm-1.84 4.939c0.55 0 1 0.45 1 1s-0.45 1-1 1-1-0.45-1-1 0.45-1 1-1zm4 0c0.55 0 1 0.45 1 1s-0.45 1-1 1c-0.55 0-1-0.45-1-1s0.45-1 1-1zm-8 1c0.25 0 0.4704 0.1498 0.6504 0.3398-0.03 0.53-0.02109 1.12 0.1289 1.75-0.19 0.29-0.4493 0.5-0.7793 0.5-0.58 0-1.029-0.5693-1.029-1.279 0-0.72 0.4493-1.311 1.029-1.311zm12.03 0c0.57 0 1.061 0.5905 1.061 1.311 0 0.71-0.4905 1.279-1.061 1.279-0.37 0-0.6596-0.2589-0.8496-0.6289 0.06-0.48 0.04-0.9311 0-1.371 0.19-0.35 0.4896-0.5898 0.8496-0.5898zm-6.029 3c-3.31 0-6 1.35-6 3s2.69 3 6 3c3.31 0 6-1.35 6-3s-2.69-3-6-3zm-2.83 1.82c0.75 0.75 1.77 1.18 2.83 1.18s2.08-0.4297 2.83-1.18l0.6992 0.709c-0.93 0.94-2.199 1.471-3.529 1.471s-2.599-0.5307-3.529-1.471l0.6992-0.709z" fill="#ebdbb2"/>
</svg>

<svg xmlns="http://www.w3.org/2000/svg" width="16" height="16" version="1.1">
 <path style="fill:#ebdbb2" d="M 7.84,0.06 C 6.61,0.79 6.78,1.69 6.93,2.09 5.13,2.36 3.39,3.4 2.81,5.28 2.53,5.07 2.22,4.93 1.87,4.93 0.84,4.93 0,6.02 0,7.31 0,8.6 0.84,9.65 1.87,9.65 2.34,9.65 2.76,9.44 3.09,9.09 5.81,7.82 10.18,7.62 12.97,9.12 13.28,9.44 13.68,9.65 14.12,9.65 15.16,9.65 16,8.6 16,7.31 16,6.02 15.16,4.93 14.12,4.93 13.69,4.93 13.31,5.13 13,5.43 12.49,3.73 11.16,2.52 9.18,2.15 9.01,1.51 8.9,0.24 10.81,0.37 8.64,-0.42 8.09,2 8.09,2 7.82,1.88 7.12,1.36 7.84,0.06 Z M 6,5 C 6.55,5 7,5.45 7,6 7,6.55 6.55,7 6,7 5.45,7 5,6.55 5,6 5,5.45 5.45,5 6,5 Z M 10,5 C 10.55,5 11,5.45 11,6 11,6.55 10.55,7 10,7 9.45,7 9,6.55 9,6 9,5.45 9.45,5 10,5 Z M 2,6 C 2.25,6 2.47,6.15 2.65,6.34 2.62,6.87 2.63,7.46 2.78,8.09 2.59,8.38 2.33,8.59 2,8.59 1.42,8.59 0.97,8.02 0.97,7.31 0.97,6.59 1.42,6 2,6 Z M 14.03,6 C 14.6,6 15.09,6.59 15.09,7.31 15.09,8.02 14.6,8.59 14.03,8.59 13.66,8.59 13.37,8.33 13.18,7.96 13.24,7.48 13.22,7.03 13.18,6.59 13.37,6.24 13.67,6 14.03,6 Z"/>
 <path style="fill:#ebdbb2" d="M 8,9 C 4.69,9 2,10.35 2,12 2,13.65 4.69,15 8,15 11.31,15 14,13.65 14,12 14,10.35 11.31,9 8,9 Z M 5.17,10.82 C 5.92,11.57 6.94,12 8,12 9.06,12 10.08,11.57 10.83,10.82 L 11.53,11.53 C 10.6,12.47 9.33,13 8,13 6.67,13 5.4,12.47 4.47,11.53 Z"/>
</svg>
